X: 19
T: Pultney Green
%R: slip-jig
B: T. Davis "24 Country Dances for the Year 1748"
S: http://imslp.org/wiki/24_Country_Dances_for_the_Year_1748_(Davis,_T.) 2013-11-30
Z: 2013 John Chambers <jc:trillian.mit.edu>
N: The 2nd strain has initial repeat but no final repeat; not fixed.
N: Added dot to 2nd bass note in 1st measure; removed dot from last bass note.
M: 9/4
L: 1/4
K: C
% - - - - - - - - - - - - - - - - - - - - - - - - -
% Voice 1 has 8-bar staffs.
V: 1 staves=2
|:\
c3 g2f edc | aga ABc B3 |\
c3 (TB2A) GFE | Ddc BGB c3 :|\
|:\
c3 c2_B AGF | d3 d2c BAG |
edc fed gfe | agf eac B3 |\
c3 {c2}B2A GFE | A3 {A2}G2F EDC |\
Adc Bed cfe | dgc BGB c2 |]
% - - - - - - - - - - - - - - - - - - - - - - - - -
% Voice 2 preserves the original staff breaks.
V: 2 clef=bass middle=d
|:\
c3 "6"b3 c'3 | "6"f3 "7;#"d3 g3 |\
a3 "6;4"d3 "6"e3 | "6"f3 g3 c3 :|\
|:\
"6"e3 "b7;5"c3 f3 | "6"^f3 "7;5;#"d3 g3 |
c'3 "7"g3 "6"e3 | "6"f3 "7;5"d3 g2f |\
"6"e3 "6;4"d3 c3- | "6;4"c3 "6"B3 c3- |\
"6;4"c3 "6;4"d3 "6;3"e3 | "6;5"f3 "5;3"g3 c2 |]
%%begintext align
%% First Cu. cast off one Cu. & up again; cross over & turn in the 2d Couple's Place || Then the first 2d &
%% 3d Cu. set to their Partners & turn them of the Men's Side; then set again & turn them of their
%% own Side | The 1st Cu. being then in the 2d Cu. Place lead thro' the 3d Cu. & cast up into the
%% 2d Cu. Place & cross to the Top & Hands a cross half Round. ||
%%endtext

%%sep 1 1 500
%%sep 1 1 500

